icon/fa/face-laugh-beam.svg

<svg xmlns="http://www.w3.org/2000/svg" viewBox="0 0 512 512"><!--! Font Awesome Free 6.1.2 by @fontawesome - https://fontawesome.com License - https://fontawesome.com/license/free (Icons: CC BY 4.0, Fonts: SIL OFL 1.1, Code: MIT License) Copyright 2022 Fonticons, Inc.--><path d="M0 256C0 114.6 114.6 0 256 0s256 114.6 256 256-114.6 256-256 256S0 397.4 0 256zm256 176c76.1 0 140.2-50 159.2-117.9 3.9-13.7-7.4-26.1-21.6-26.1H118.4c-14.2 0-25.48 12.4-21.64 26.1C115.8 382 179.9 432 256 432zm-29.5-216.4c3.3-1.1 5.5-4.2 5.5-7.6 0-17.9-6.7-35.6-16.6-48.8-9.8-13-23.9-23.2-39.4-23.2s-29.6 10.2-39.4 23.2c-9.9 13.2-16.6 30.9-16.6 48.8 0 3.4 2.2 6.5 5.5 7.6 3.2 1.1 6.8 0 8.9-2.8l.2-.3c.2-.2-.5-.5.7-.9-.2-.8 1.6-1.9 2.8-3.3 2.5-2.9 6-6.6 10.2-11.2 8.8-6.9 18.9-13.1 27.7-13.1s18.9 6.2 27.7 13.1c4.2 4.6 7.7 8.3 10.2 11.2 1.2 1.4 2.1 2.5 2.8 3.3.3.4.5.7.7.9l.2.3c2.1 2.8 5.7 3.9 8.9 2.8zm151.1-2.8c2.1 2.8 5.7 3.9 8.9 2.8 3.3-1.1 5.5-4.2 5.5-7.6 0-17.9-6.7-35.6-16.6-48.8-9.8-13-23.9-23.2-39.4-23.2s-29.6 10.2-39.4 23.2c-9.9 13.2-16.6 30.9-16.6 48.8 0 3.4 2.2 6.5 5.5 7.6 3.2 1.1 6.8 0 8.9-2.8l.2-.3c.2-.2-.5-.5.7-.9-.2-.8 1.6-1.9 2.8-3.3 2.5-2.9 6-6.6 10.2-11.2 8.8-6.9 18.9-13.1 27.7-13.1s18.9 6.2 27.7 13.1c4.2 4.6 7.7 8.3 10.2 11.2 1.2 1.4 2.1 2.5 2.8 3.3.3.4.5.7.7.9l.2.3z"/></svg>

<svg xmlns="http://www.w3.org/2000/svg" viewBox="0 0 512 512" height="1em" width="1em">
<!--! Font Awesome Free 6.1.2 by @fontawesome - https://fontawesome.com License - https://fontawesome.com/license/free (Icons: CC BY 4.0, Fonts: SIL OFL 1.1, Code: MIT License) Copyright 2022 Fonticons, Inc.-->
  <path d="M0 256C0 114.6 114.6 0 256 0C397.4 0 512 114.6 512 256C512 397.4 397.4 512 256 512C114.6 512 0 397.4 0 256zM256 432C332.1 432 396.2 382 415.2 314.1C419.1 300.4 407.8 288 393.6 288H118.4C104.2 288 92.92 300.4 96.76 314.1C115.8 382 179.9 432 256 432V432zM226.5 215.6C229.8 214.5 232 211.4 232 208C232 190.1 225.3 172.4 215.4 159.2C205.6 146.2 191.5 136 176 136C160.5 136 146.4 146.2 136.6 159.2C126.7 172.4 120 190.1 120 208C120 211.4 122.2 214.5 125.5 215.6C128.7 216.7 132.3 215.6 134.4 212.8L134.4 212.8L134.6 212.5C134.8 212.3 134.1 212 135.3 211.6C135.1 210.8 136.9 209.7 138.1 208.3C140.6 205.4 144.1 201.7 148.3 197.1C157.1 190.2 167.2 184 176 184C184.8 184 194.9 190.2 203.7 197.1C207.9 201.7 211.4 205.4 213.9 208.3C215.1 209.7 216 210.8 216.7 211.6C217 212 217.2 212.3 217.4 212.5L217.6 212.8L217.6 212.8C219.7 215.6 223.3 216.7 226.5 215.6V215.6zM377.6 212.8C379.7 215.6 383.3 216.7 386.5 215.6C389.8 214.5 392 211.4 392 208C392 190.1 385.3 172.4 375.4 159.2C365.6 146.2 351.5 136 336 136C320.5 136 306.4 146.2 296.6 159.2C286.7 172.4 280 190.1 280 208C280 211.4 282.2 214.5 285.5 215.6C288.7 216.7 292.3 215.6 294.4 212.8L294.4 212.8L294.6 212.5C294.8 212.3 294.1 212 295.3 211.6C295.1 210.8 296.9 209.7 298.1 208.3C300.6 205.4 304.1 201.7 308.3 197.1C317.1 190.2 327.2 184 336 184C344.8 184 354.9 190.2 363.7 197.1C367.9 201.7 371.4 205.4 373.9 208.3C375.1 209.7 376 210.8 376.7 211.6C377 212 377.2 212.3 377.4 212.5L377.6 212.8L377.6 212.8z"/>
</svg>
